X:211
%%titlespace -50
%%musicspace -20
T:
T:Harmony
M:3/4
L:1/4
K:Bb
B3 | D3 | F z ^F | G z =F | B3 | d3 | c3- | c2 F | c3 | A3 | F3 | E3 | DFA | d^c=c | BAB | cAF ||
B3 | D3 | F z ^F | G z =F | D3 | D3 | E3- | EEF | GFE | GFE | DGB | DDC | B3 | A3 | B3- | Bzz :|
B2d | A2d | GzG | Gzz | F2G | E2F | D3 | FGE | D3 | GFE | F2E | C3 | F2E | C3 | G2F | FGA ||
B2d | A2d | GzG | Gzz | G3 | G2F | E3 | FGA | B3 | A2G | F2B | DFB | B2B | cBA | B3- | Bzz |]

%%newpage
%%scale 0.8

